Sources/FrostedUI/Resources/Icons.xcassets/plane16.imageset/plane-16.svg

<svg width="16" height="16" viewBox="0 0 16 16" fill="none" xmlns="http://www.w3.org/2000/svg" data-fui-icon="true">
  <path
    d="M7.97253 1.58594C8.25656 1.58594 8.51636 1.74698 8.64343 2.00098L10.5946 5.90137H13.1512C14.3102 5.90137 15.2498 6.84108 15.2499 8C15.2498 9.15892 14.3102 10.0986 13.1512 10.0986H10.5936L8.64343 13.999L7.97253 13.6631V13.6641L8.64343 13.999C8.51639 14.2531 8.25661 14.4141 7.97253 14.4141H6.35437C6.12355 14.414 5.90561 14.3069 5.76355 14.125C5.62159 13.943 5.57085 13.7054 5.62683 13.4814L6.47253 10.0986H4.77722L3.37878 11.4971C3.23816 11.6377 3.04738 11.7168 2.84851 11.7168H1.49988C1.25525 11.7168 1.02597 11.5969 0.88562 11.3965C0.745499 11.1962 0.711246 10.9397 0.7948 10.71L1.78015 7.99902L0.7948 5.28906L0.769409 5.20215C0.721787 4.99633 0.762806 4.77788 0.88562 4.60254C1.02598 4.40231 1.25534 4.28323 1.49988 4.2832H2.84851L2.995 4.29785C3.13924 4.32661 3.27322 4.39742 3.37878 4.50293L4.77722 5.90137H6.47253L5.62683 2.51758C5.571 2.29366 5.62152 2.05594 5.76355 1.87402C5.90561 1.69227 6.12368 1.58605 6.35437 1.58594H7.97253ZM8.16101 6.46973C8.2169 6.69367 8.16633 6.93133 8.02429 7.11328C7.88215 7.29505 7.66424 7.40137 7.43347 7.40137H4.46667C4.26781 7.40134 4.07703 7.32225 3.9364 7.18164L2.58875 5.83398L3.28308 7.74316C3.34326 7.90866 3.34321 8.09035 3.28308 8.25586L2.58875 10.165L3.9364 8.81836L4.05066 8.72461C4.17296 8.64305 4.31751 8.59865 4.46667 8.59863H7.43347C7.66427 8.59863 7.88216 8.70491 8.02429 8.88672C8.1664 9.06872 8.21697 9.30625 8.16101 9.53027L7.31531 12.9141H7.50867L9.45984 9.0127L9.51355 8.92188C9.65226 8.72117 9.88235 8.59866 10.1307 8.59863H13.1512C13.4818 8.59863 13.7498 8.33049 13.7499 8C13.7498 7.66951 13.4818 7.40137 13.1512 7.40137H10.1307C9.84669 7.40134 9.58687 7.24039 9.45984 6.98633L10.1307 6.65137V6.65039L9.45984 6.98633L7.50964 3.08594H7.31531L8.16101 6.46973Z"
    fill="currentColor"
  />
</svg>

<svg xmlns="http://www.w3.org/2000/svg" width="16" height="16" fill="none" data-fui-icon="true" viewBox="0 0 16 16"><path fill="currentColor" d="M7.973 1.586a.75.75 0 0 1 .67.415l1.952 3.9h2.556a2.099 2.099 0 0 1 0 4.198h-2.557l-1.95 3.9-.671-.336v.001l.67.335a.75.75 0 0 1-.67.415H6.354a.75.75 0 0 1-.727-.933l.846-3.382H4.777L3.38 11.497a.75.75 0 0 1-.53.22h-1.35a.75.75 0 0 1-.704-1.007l.985-2.711-.985-2.71-.026-.087a.75.75 0 0 1 .73-.919h1.35l.146.015a.75.75 0 0 1 .384.205L4.777 5.9h1.696l-.846-3.383a.75.75 0 0 1 .727-.932zM8.16 6.47a.75.75 0 0 1-.728.931H4.467a.75.75 0 0 1-.53-.22L2.588 5.835l.694 1.91a.75.75 0 0 1 0 .512l-.694 1.909 1.347-1.347.115-.093a.75.75 0 0 1 .416-.126h2.966a.75.75 0 0 1 .728.931l-.846 3.384h.194l1.95-3.901.055-.091a.75.75 0 0 1 .617-.323h3.02a.599.599 0 0 0 0-1.198h-3.02a.75.75 0 0 1-.671-.415l.67-.335-.67.335-1.95-3.9h-.195z"/></svg>
